!!!!SEGMENT: pl-lzu--m-15111--001-016_noskowski-zygmunt--spiewnik-dla-dzieci-op-34-16-nasza-czarna-jaskoleczka.krn
!!!cenid: 18xx:4713
!!!COM: Noskowski, Zygmunt
!!!COM-rismID: pe106604
!!!CDT: 1846/05/02-1909/07/23
!!!CNT: Polish
!!!GTL: Śpiewnik dla dzieci, op. 34
!!!OTL: 16. Nasza czarna jaskółeczka
!!!OMV: 016
!!!PDT: 1890
!!!AGN: Secular; Song; Children
!!!YEC: Copyright 2022 Narodowy Instytut Fryderyka Chopina (https://polishscores.org)
!!!YEM: License CC-BY-4.0 (https://creativecommons.org/licenses/by/4.0)
!!!SMS-siglum: PL-LŹu
!!!SMS-shelfmark: M 15111
!!!SMS-variant:
!!!SMS-altvar:
!!!SMS-shelfwork: 001-016 G
!!!NIFC-rismSourceID: 1001234040
!!!NIFC-rismChildID: 1001234040
!!!NIFC-islandoraID: pl-lzu:5455
!!!URL-pdf-islandora: https://repozytorium.nifc.pl/islandora/object/pl-lzu%3A5455/datastream/PDF/view
!!!URL-scan: https://polish.musicsources.pl/pl/lokalizacje/galeria/druki-muzyczne/23228/23 @EN{Scan on Polish Music Sources Website} @PL{Skany w portalu Dziedzictwo Muzyki Polskiej w otwartym dostępie}
!!!IIIF:
!!!ONB-nifc:
!!!AIN: 1 piano 1 vox
!!!key: F
!!!OMD: Allegretto.
**kern	**kern	**dynam	**kern	**text	**text	**dynam
*part2	*part2	*part2	*part1	*part1	*part1	*part1
*staff3	*staff2	*staff2/3	*staff1	*staff1	*staff1	*staff1
*I"[Piano]	*I"[Piano]	*	*I"[Voice]	*	*	*
*I'pf	*I'pf	*	*I'V	*	*	*
*Ipiano	*Ipiano	*	*Ivox	*	*	*
*ICklav	*ICklav	*	*ICvox	*	*	*
*IGacmp	*IGacmp	*	*IGsolo	*	*	*
*>[A,B,B,C]	*>[A,B,B,C]	*>[A,B,B,C]	*>[A,B,B,C]	*>[A,B,B,C]	*>[A,B,B,C]	*>[A,B,B,C]
*>A	*>A	*>A	*>A	*>A	*>A	*>A
*clefF4	*clefG2	*	*clefG2	*	*	*
*k[b-]	*k[b-]	*	*k[b-]	*	*	*
*F:	*F:	*	*F:	*	*	*
*M3/4	*M3/4	*	*M3/4	*	*	*
=1	=1	=1	=1	=1	=1	=1
!	!LO:TX:a:i:t=Cokolwiek źwawo.	!	!	!	!	!
(2FF/	(8ddL 8bn\	mf	2.r	.	.	.
.	8aaJ 8ff\	.	.	.	.	.
.	2cc 2a\)	.	.	.	.	.
(8qD/	.	.	.	.	.	.
4C/))	.	.	.	.	.	.
=2	=2	=2	=2	=2	=2	=2
(2FF/	(8b-XL 8g\	.	2.r	.	.	.
.	8ffJ 8dd\	.	.	.	.	.
.	2a 2f/)	.	.	.	.	.
(8qD/	.	.	.	.	.	.
4C/))	.	.	.	.	.	.
=3	=3	=3	=3	=3	=3	=3
(2FF/	(8gL 8e/	.	2.r	.	.	.
.	8ddJ 8b-/	.	.	.	.	.
.	4f 4d/)	.	.	.	.	.
(8qD/	.	.	.	.	.	.
4C/))	(8gL 8e/	.	.	.	.	.
.	8ccJ 8b-/)	.	.	.	.	.
=4!|:	=4!|:	=4!|:	=4!|:	=4!|:	=4!|:	=4!|:
*>B	*>B	*>B	*>B	*>B	*>B	*>B
(2FF/	(8fL 8d/	.	2.r	.	.	.
.	8ccJ 8a/	.	.	.	.	.
.	4f 4c/)	.	.	.	.	.
(8qD/	.	.	.	.	.	.
4C/))	4a 4f/	.	.	.	.	.
!!LO:LB:g=original
=5	=5	=5	=5	=5	=5	=5
*	*	*	*	*v:1	*v:2	*
!	!LO:TX:b:i:t=con anima	!LO:DY:rj	!LO:TX:a:i:t=con anima	!	!	!LO:DY:rj
2C/	(8g/L	p	8g/	Na-	A	p
.	8a/J)	.	8a/	-sza	ty	.
.	4b- 4d 4B-/	.	4.b-/	czar-	czar-	.
4B- 4G\	8r	.	.	.	.	.
.	8d/	.	8d/	-na	-na	.
=6	=6	=6	=6	=6	=6	=6
4C/	(8e/L	.	8e/	ja-	ja-	.
.	8f/J)	<	8f/	-skó-	-skó-	<
4c 4B-\	4g 4e/	.	4g/	-łe-	-łe-	.
4c 4B-\	4a 4e/	[	4a,/	-czka	-czko,	[
=7	=7	=7	=7	=7	=7	=7
4FF/	(8b-\L	.	8b-\	Przy-	No-	.
.	8cc\J)	.	8cc\	-le-	-sisz	.
4A 4F\	4.dd 4.f^/	.	4.dd\	-cia-	piór-	.
4A 4F\	.	.	.	.	.	.
.	8a/	.	8a/	-ła	-ka	.
=8	=8	=8	=8	=8	=8	=8
4AA/	(8cc/L	.	8cc\	do	na	.
.	.	>	.	.	.	>
.	8a/J)	.	8a/	gnia-	gnia-	.
4A 4F\	4g 4c/	.	4g/	-zde-	-zde-	.
4A 4F\	4f 4c/	]	4f/	-czka,	-czko,	]
!!LO:PB:g=original
=9	=9	=9	=9	=9	=9	=9
*	*	*	*	*v:1	*v:2	*
!	!	!LO:DY:rj	!	!	!	!
4A 4E 4AA\	(8eL 8c/	p	8e/	Przez	Ście-	.
.	8a/J)	.	8a/	da-	-lesz	.
4Bn 4E 4AA\	4g#X 4d/	.	4g#X/	-le-	dziób-	.
4r	8a/L	.	(8a/L	-ki	-kiem	.
.	8bn/J	.	8bn/J)	.	.	.
=10	=10	=10	=10	=10	=10	=10
*^	*^	*	*	*	*	*
4r	2.AA\	2.cc/	4r	.	2.cc\	kraj!	je!	.
4A 4E/	.	.	4e 4c\	.	.	.	.	.
4A 4E/	.	.	4e 4c\	.	.	.	.	.
*v	*v	*	*	*	*	*	*	*
=11	=11	=11	=11	=11	=11	=11	=11
4r	(8dd\L	2ryy	<	2.r	.	.	.
.	8ff\J	.	.	.	.	.	.
4d 4A\	4bn 4f/)	.	[	.	.	.	.
4d 4A\	(8cc/L	4e\	.	.	.	.	.
.	8g#X/J	.	.	.	.	.	.
*	*v	*v	*	*	*	*	*
=12	=12	=12	=12	=12	=12	=12
4r	8a/L	>	2.r	.	.	.
.	8ee/J)	.	.	.	.	.
4c 4A\	(4.ee 4.a 4.e/	]	.	.	.	.
4r	.	.	.	.	.	.
.	8dd\)	.	.	.	.	.
!!LO:LB:g=original
=13	=13	=13	=13	=13	=13	=13
*	*	*	*	*v:1	*v:2	*
4C/	(8cc/L	.	8cc\	Bo	Ściel-	.
.	8g/J)	.	8g/	w tem	-że	.
4c 4G\	4b- 4e/	.	4b-/	gnia-	so-	.
4c 4G\	(8aL 8e/	.	(8a/L	-zdku	-bie,	.
.	8g/J)	.	8g/J)	.	.	.
=14	=14	=14	=14	=14	=14	=14
4C/	(8f#X/L	<	8f#X/	się	ściel	<
.	8g/J)	.	8g/	ro-	nie-	.
4c 4B-^\	4dd 4e^/	[	4dd^\	-dzi-	-bo-	[
4c 4B-\	4cc 4e/	.	4cc\	-ła,	-go,	.
=15	=15	=15	=15	=15	=15	=15
4FF/	(8bn\L	<	8bn\	Bo	Chłop-	<
.	8cc\J)	.	8cc\	tu	-cy	.
4Bn 4D\	4g#X 4f/	.	4.g#X/	jest	pój-	.
4c 4F\	(8f/L	.	.	.	.	.
.	8a/J)	.	8a/	jej	-dą	.
=16	=16	=16	=16	=16	=16	=16
2AA/	(8bn\L	mf	8bn\	strze-	swo-	mf
.	8cc\J)	.	8cc\	-cha	-ją	.
.	4ff 4cc 4f\	.	4ff\	mi-	dro-	.
4D\	4a 4f 4d/	.	4a,/	-ła,	-gą,	.
!!LO:LB:g=original
=17	=17	=17	=17	=17	=17	=17
*	*	*	*	*v:1	*v:2	*
*	*^	*	*	*	*	*
2.GG/	(8g/L	2ryy	.	8g/	Bo	Nie	.
.	8a/J)	.	.	8a/	tu	ru-	.
.	4b- 4f 4d/	.	.	4b-/	jest	-szą	.
.	(<8a/L	4f 4d\	.	(8a/L	jej	go	.
.	8b-/J)	.	.	8b-/J)	.	.	.
=18	=18	=18	=18	=18	=18	=18	=18
2.GG/	2.dd/	4r	>	2.dd\	raj!	nie!	>
.	.	4b- 4f 4d\	.	.	.	.	.
.	.	4b- 4f 4d\	]	.	.	.	]
*	*v	*v	*	*	*	*	*
=19	=19	=19	=19	=19	=19	=19
!	!	!LO:DY:rj	!	!	!	!LO:DY:rj
4C/	(8d/L	p	8d/	Bo	Nie	p
.	8f/J)	.	8f/	tu	ru-	.
4B- 4C\	4e 4c/	.	4e/	jest	-szą	.
4r	(8f/L	.	(8f/L	jej	go	.
.	8g/J)	.	8g/J)	.	.	.
=20	=20	=20	=20	=20	=20	=20
*	*^	*	*	*	*	*
4FF/	2.cc/	4r	.	[2.cc\	raj!	nie!	.
2A 2C\	.	2f 2c\	.	.	.	.	.
*	*v	*v	*	*	*	*	*
!!LO:PB:g=original
=21	=21	=21	=21	=21	=21	=21
(2FF/	(8ddL 8bn\	mf	4cc\]	.	.	.
.	8aaJ 8ff\	.	.	.	.	.
.	2cc 2a\)	.	4r	.	.	.
(8qD/	.	.	.	.	.	.
4C/))	.	.	4r	.	.	.
=22	=22	=22	=22	=22	=22	=22
(2FF/	(8b-XL 8g\	.	2.r	.	.	.
.	8ffJ 8dd\	.	.	.	.	.
.	2a 2f/)	.	.	.	.	.
(8qD/	.	.	.	.	.	.
4C/))	.	.	.	.	.	.
=23	=23	=23	=23	=23	=23	=23
(2FF/	(8gL 8e/	.	2.r	.	.	.
.	8ddJ 8b-/	.	.	.	.	.
.	4f 4d/)	.	.	.	.	.
(8qD/	.	.	.	.	.	.
4C/))	(8gL 8e/	.	.	.	.	.
.	8ccJ 8b-/)	.	.	.	.	.
=24:|!	=24:|!	=24:|!	=24:|!	=24:|!	=24:|!	=24:|!
*>C	*>C	*>C	*>C	*>C	*>C	*>C
4FF/	(8fL 8d/	.	2.r	.	.	.
.	8ccJ 8a/	.	.	.	.	.
4A 4F\	4f 4c/)	.	.	.	.	.
4r	4r	.	.	.	.	.
==	==	==	==	==	==	==
*-	*-	*-	*-	*-	*-	*-
!!!system-decoration: p1{p2}
!!!RDF**kern: > = above
!!!RDF**kern: < = below
!!!ENC: Andrzej Gręziak
!!!END: 2025-03-05
!!!ENC: Marta Lawrence
!!!END: 2025-03-20
